!!!OTL: WAS BRINGEN UNS DIE SCHWABEN
!!!ARE: Europa, Mitteleuropa, Deutschland
!!!SCT: E1713
!!!YEM: Copyright 1995, estate of Helmut Schaffrath.
**kern
*ICvox
*Ivox
*M4/4
*k[b-]
*F:
{4f
4f
4f
=1
4f
4g
2a
=2
2f
4r}
{4f
=3
8f
8g
8a
8b-
4cc
4cc
=4
4dd
4bn
2cc
=5
4r}
{4cc
4cc
4cc
=6
8cc
8dd
4ee
4ff
4ff
=7
2cc
4r}
{4cc
=8
4.cc
8dd
4cc
4b-
=9
4a
4a
2g}
=10
{4a
4b-
2cc
=11
4g
4a
2b-
=12
4r}
{4f
4f
8f
8g
=13
4a
4a
4g
4g
=14
1f
=15
4r}
==
!!!AGN: Spott - Lied auf die Schwaben
!!!ONB: ESAC (Essen Associative Code) Database: ERK3
!!!AMT: simple quadruple
!!!AIN: vox
!!!EED: Helmut Schaffrath
!!!EEV: 1.0
*-
